!!!!SEGMENT: pl-sa--228-a-vi-32--001-007_luna-georgius--litania-ex-d-mater-amabilis.krn
!!!cenid: 17xx:452
!!!COM: Luna, Georgius
!!!COM-rismID: pe41010079
!!!CDT:
!!!CNT:
!!!OPR: Litania ex D
!!!OTL: Mater amabilis
!!!OMV: 007
!!!PDT:
!!!AGN: Sacred; Mass
!!!YEC: Copyright 2022 Narodowy Instytut Fryderyka Chopina (https://polishscores.org)
!!!YEM: License CC-BY-4.0 (https://creativecommons.org/licenses/by/4.0)
!!!SMS-siglum: PL-SA
!!!SMS-shelfmark: 228/A VI 32
!!!SMS-shelfwork: 001-007 M
!!!SMS-variant: Violino Primo: PL-SA 228/A VI 32:12
!!!SMS-altvar: Violino Imo: PL-SA 228/A VI 32:30
!!!NIFC-rismSourceID: 1001068968
!!!NIFC-rismChildID: 1001068968
!!!NIFC-islandoraID: none
!!!URL-pdf-islandora:
!!!URL-scan: https://bc.bdsandomierz.pl/dlibra/publication/1604/edition/1572/content @EN{Scan in the Sandomierz Diocese Digital Library} @PL{Skany w portalu Cyfrowa Biblioteka Diecezjalna w Sandomierzu}
!!!IIIF:
!!!ONB-nifc: UWAGA: części Litanii: Sinfonia, Kyrie, Pater de caelis, Sancta trinitas, Sancta Maria, Mater Christi, Mater amabilis, Virgo prudentissima, Speculum iustitiae, Rosa mistica, Salus infirmorum, Regina angelorum, Agnus Dei
!!!AIN: 3 empty 1 tenor 2 violn 1 vox
!!!key:
**kern	**dynam	**kern	**dynam	**kern	**dynam	**kern	**text	**kern	**text	**kern	**kern
*group4	*	*group3	*	*group3	*	*group2	*	*group2	*	*group1	*group1
*part7	*	*part6	*	*part5	*	*part4	*	*part3	*	*part2	*part1
*staff7	*	*staff6	*	*staff5	*	*staff4	*	*staff3	*	*staff2	*staff1
*Iempty	*	*Ivioln	*	*Ivioln	*	*Itenor	*	*Ivox	*	*Iempty	*Iempty
*I"Fondamento	*	*I"Violino Secundo	*	*I"Violino Primo	*	*I"Tenore	*	*I"Canto	*	*I"Clarino Secundo	*I"Clarino Primo
*I'b	*	*I'vl 2	*	*I'vl 1	*	*I'T	*	*I'S	*	*I'clno 2	*I'clno 1
*clefF4	*	*clefG2	*	*clefG2	*	*clefC4	*	*clefC1	*	*clefG2	*clefG2
*	*	*	*	*	*	*	*	*	*	*ITrd-1c-2	*ITrd-1c-2
*k[f#c#]	*	*k[f#c#]	*	*k[f#c#]	*	*k[f#c#]	*	*k[f#c#]	*	*k[f#c#]	*k[f#c#]
*D:	*	*D:	*	*D:	*	*D:	*	*D:	*	*D:	*D:
*M4/4	*	*M4/4	*	*M4/4	*	*M4/4	*	*M4/4	*	*M4/4	*M4/4
*met(c)	*	*met(c)	*	*met(c)	*	*met(c)	*	*met(c)	*	*met(c)	*met(c)
=1	=1	=1	=1	=1	=1	=1	=1	=1	=1	=1	=1
*2\right	*	*2\right	*	*2\right	*	*	*	*	*	*	*
!LO:TX:a:t=Mater Amabilis (poprawione)	!	!LO:TX:a:t=andante	!	!LO:TX:a:t=andante	!	!	!	!	!	!	!
!LO:TX:a:t=andante	!	!LO:TX:a:t=Mater amabilis	!	!LO:TX:a:t=Mater amabilis	!	!LO:TX:a:t=andante	!	!	!	!LO:TX:a:t=Mater amabilis Tacet	!LO:TX:a:t=Mater amabilis Tacet
8d\L	.	4dd\	.	4dd\	.	00r	.	00r	.	1ryy	1ryy
8d\	.	.	.	.	.	.	.	.	.	.	.
8d\	.	8ff#\L	.	8ff#\L	.	.	.	.	.	.	.
8d\J	.	(16ee\L	.	16ee\L	.	.	.	.	.	.	.
.	.	16dd\JJ)	.	16dd\JJ	.	.	.	.	.	.	.
8c#\L	.	4aa\	.	4aa\	.	.	.	.	.	.	.
8c#\	.	.	.	.	.	.	.	.	.	.	.
8c#\	.	4a/	.	4a/	.	.	.	.	.	.	.
8c#\J	.	.	.	.	.	.	.	.	.	.	.
=2	=2	=2	=2	=2	=2	=2	=2	=2	=2	=2	=2
!LO:TX:a:t=P:problem=mixed beam	!	!	!	!	!	!	!	!	!	!	!
8B\L	.	4gg\	.	4gg\	.	.	.	.	.	1ryy	1ryy
8G\	.	.	.	.	.	.	.	.	.	.	.
8A\	.	16ff#\LL	.	16ff#\LL	.	.	.	.	.	.	.
.	.	16ee\	.	16ee\	.	.	.	.	.	.	.
8AA/J	.	16dd\	.	16dd\	.	.	.	.	.	.	.
.	.	16cc#\JJ	.	16cc#\JJ	.	.	.	.	.	.	.
8D\L	.	4dd\	.	4dd\	.	.	.	.	.	.	.
8E\	.	.	.	.	.	.	.	.	.	.	.
8F#\	.	4d/	.	4d/	.	.	.	.	.	.	.
8D\J	.	.	.	.	.	.	.	.	.	.	.
=3	=3	=3	=3	=3	=3	=3	=3	=3	=3	=3	=3
*tremolo	*	*	*	*	*	*	*	*	*	*	*
*tremolo	*	*	*	*	*	*	*	*	*	*	*
8d\L	.	4ff#\	.	4ff#\	.	.	.	.	.	1ryy	1ryy
8d\	.	.	.	.	.	.	.	.	.	.	.
8d\	.	16ee\LL	.	16ee\LL	.	.	.	.	.	.	.
.	.	16dd\	.	16dd\	.	.	.	.	.	.	.
8d\J	.	16cc#\	.	16cc#\	.	.	.	.	.	.	.
.	.	16b\JJ	.	16b\JJ	.	.	.	.	.	.	.
8d\L	.	16a#X\LL	.	16a#X\LL	.	.	.	.	.	.	.
.	.	16b\	.	16b\	.	.	.	.	.	.	.
8d\	.	16dd\	.	16dd\	.	.	.	.	.	.	.
.	.	16ff#\JJ	.	16ff#\JJ	.	.	.	.	.	.	.
8d\	.	16ee\LL	.	16ee\LL	.	.	.	.	.	.	.
.	.	16dd\	.	16dd\	.	.	.	.	.	.	.
8d\J	.	16cc#\	.	16cc#\	.	.	.	.	.	.	.
.	.	16b\JJ	.	16b\JJ	.	.	.	.	.	.	.
*Xtremolo	*	*	*	*	*	*	*	*	*	*	*
=4	=4	=4	=4	=4	=4	=4	=4	=4	=4	=4	=4
8c#\L	.	4ee\	.	4ee\	.	.	.	.	.	1ryy	1ryy
8c#\	.	.	.	.	.	.	.	.	.	.	.
8c#\	.	16dd\LL	.	16dd\LL	.	.	.	.	.	.	.
.	.	16cc#\	.	16cc#\	.	.	.	.	.	.	.
8c#\J	.	16b\	.	16b\	.	.	.	.	.	.	.
.	.	16a\JJ	.	16a\JJ	.	.	.	.	.	.	.
8c#\L	.	16g#X\LL	.	16g#X\LL	.	.	.	.	.	.	.
.	.	16a\	.	16a\	.	.	.	.	.	.	.
8c#\	.	16cc#\	.	16cc#\	.	.	.	.	.	.	.
.	.	16ee\JJ	.	16ee\JJ	.	.	.	.	.	.	.
8c#\	.	16dd\LL	.	16dd\LL	.	.	.	.	.	.	.
.	.	16cc#\	.	16cc#\	.	.	.	.	.	.	.
8c#\J	.	16b\	.	16b\	.	.	.	.	.	.	.
.	.	16a\JJ	.	16a\JJ	.	.	.	.	.	.	.
=5	=5	=5	=5	=5	=5	=5	=5	=5	=5	=5	=5
8B\L	.	4dd\	.	4dd\	.	00r	.	00r	.	1ryy	1ryy
8B\	.	.	.	.	.	.	.	.	.	.	.
8D\	.	16dd\LL	.	16dd\LL	.	.	.	.	.	.	.
.	.	16cc#\	.	16cc#\	.	.	.	.	.	.	.
8D\J	.	16b\	.	16b\	.	.	.	.	.	.	.
.	.	16a\JJ	.	16a\JJ	.	.	.	.	.	.	.
8E\L	.	16g#X/LL	.	16g#X/LL	.	.	.	.	.	.	.
.	.	16f#/J	.	16f#/J	.	.	.	.	.	.	.
8F#\	.	8e/J	.	8e/J	.	.	.	.	.	.	.
8G#X\	.	8r	.	8r	.	.	.	.	.	.	.
8E\J	.	8dd\	.	8dd\	.	.	.	.	.	.	.
=6	=6	=6	=6	=6	=6	=6	=6	=6	=6	=6	=6
!LO:TX:a:t=P:problem=mixed beam	!	!	!	!	!	!	!	!	!	!	!
8AA/L	.	4cc#\	.	4cc#\	.	.	.	.	.	1ryy	1ryy
8A\	.	.	.	.	.	.	.	.	.	.	.
8D\	.	16b\LL	.	16b\LL	.	.	.	.	.	.	.
.	.	16a\	.	16a\	.	.	.	.	.	.	.
8E\J	.	16g#X\	.	16g#X\	.	.	.	.	.	.	.
!	!	!	!	!LO:TX:a:t=h (wysokość poprawiana)	!	!	!	!	!	!	!
.	.	16b\JJ	.	16b\JJ	.	.	.	.	.	.	.
!LO:TX:a:t=P:problem=mixed beam	!	!	!	!	!	!	!	!	!	!	!
8AA/L	.	16a\LL	.	16a\LL	.	.	.	.	.	.	.
.	.	16cc#\	.	16cc#\	.	.	.	.	.	.	.
8AA/	.	16ee\	.	16ee\	.	.	.	.	.	.	.
.	.	16aa\JJ	.	16aa\JJ	.	.	.	.	.	.	.
8E\	.	16gg#X\LL	.	16gg#X\LL	.	.	.	.	.	.	.
.	.	16ff#\	.	16ff#\	.	.	.	.	.	.	.
8E\J	.	16ee\	.	16ee\	.	.	.	.	.	.	.
.	.	16dd\JJ	.	16dd\JJ	.	.	.	.	.	.	.
!	!	!LO:LB:g=original	!	!LO:LB:g=original	!	!	!	!	!	!	!
=7	=7	=7	=7	=7	=7	=7	=7	=7	=7	=7	=7
!LO:TX:a:t=P:problem=mixed beam	!	!	!	!	!	!	!	!	!	!	!
8AA/L	.	4cc#\	.	4cc#\	.	.	.	.	.	1ryy	1ryy
8A\	.	.	.	.	.	.	.	.	.	.	.
8D\	.	16b\LL	.	16b\LL	.	.	.	.	.	.	.
.	.	16a\	.	16a\	.	.	.	.	.	.	.
8E\J	.	16g#X\	.	16g#X\	.	.	.	.	.	.	.
.	.	16b\JJ	.	16b\JJ	.	.	.	.	.	.	.
4AA/	.	8a/L	.	8a/L	.	.	.	.	.	.	.
.	.	8A/J	.	8A/J	.	.	.	.	.	.	.
!	!	!	!	!LO:TX:a:t=P:problem=podwójnie przekreślona nuta	!	!	!	!	!	!	!
*	*	*tremolo	*	*tremolo	*	*	*	*	*	*	*
*	*	*tremolo	*	*	*	*	*	*	*	*	*
*	*	*	*	*tremolo	*	*	*	*	*	*	*
8D\L	.	16ccn\LL	.	16ccn\LL	.	.	.	.	.	.	.
.	.	16ccn\	.	16ccn\	.	.	.	.	.	.	.
8D\J	.	16ccn\	.	16ccn\	.	.	.	.	.	.	.
.	.	16ccn\JJ	.	16ccn\JJ	.	.	.	.	.	.	.
*	*	*Xtremolo	*	*Xtremolo	*	*	*	*	*	*	*
=8	=8	=8	=8	=8	=8	=8	=8	=8	=8	=8	=8
8D\L	.	16cc#\KL	.	16cc#\KL	.	.	.	.	.	1ryy	1ryy
.	.	8aa\	.	8aa\	.	.	.	.	.	.	.
8D\	.	.	.	.	.	.	.	.	.	.	.
.	.	8ff#\	.	8ff#\	.	.	.	.	.	.	.
8D\	.	.	.	.	.	.	.	.	.	.	.
.	.	8dd\	.	8dd\	.	.	.	.	.	.	.
8D\J	.	.	.	.	.	.	.	.	.	.	.
.	.	16ccn\Jk	.	16ccn\Jk	.	.	.	.	.	.	.
4G\	.	8b\L	.	8b\L	.	.	.	.	.	.	.
.	.	8g\J	.	8g\J	.	.	.	.	.	.	.
*	*	*tremolo	*	*tremolo	*	*	*	*	*	*	*
8E\L	.	16dd\LL	.	16ccn\LL	.	.	.	.	.	.	.
.	.	16dd\	.	16ccn\	.	.	.	.	.	.	.
8E\J	.	16dd\	.	16ccn\	.	.	.	.	.	.	.
.	.	16dd\JJ	.	16ccn\JJ	.	.	.	.	.	.	.
*	*	*Xtremolo	*	*Xtremolo	*	*	*	*	*	*	*
=9	=9	=9	=9	=9	=9	=9	=9	=9	=9	=9	=9
8E\L	.	16dd\KL	.	16dd\KL	.	00r	.	0r	.	1ryy	1ryy
.	.	8bb\	.	8bb\	.	.	.	.	.	.	.
8E\	.	.	.	.	.	.	.	.	.	.	.
.	.	8gg#X\	.	8gg#X\	.	.	.	.	.	.	.
8E\	.	.	.	.	.	.	.	.	.	.	.
.	.	8ee\	.	8ee\	.	.	.	.	.	.	.
8E\J	.	.	.	.	.	.	.	.	.	.	.
.	.	16dd\Jk	.	16dd\Jk	.	.	.	.	.	.	.
!LO:LB:g=original	!	!	!	!	!	!	!	!	!	!	!
8A\L	.	8cc#\L	.	8cc#\L	.	.	.	.	.	.	.
8d\	.	8dd\	.	8ff#\	.	.	.	.	.	.	.
8A\	.	8dd\	.	8ff#\	.	.	.	.	.	.	.
8F#\J	.	8dd\J	.	8ff#\J	.	.	.	.	.	.	.
=10	=10	=10	=10	=10	=10	=10	=10	=10	=10	=10	=10
!LO:TX:a:t=P:problem=mixed beam	!	!	!	!	!	!	!	!	!	!	!
8D\L	.	16dd\LL	.	16ff#\LL	.	.	.	.	.	1ryy	1ryy
.	.	32ee\L	.	32ee\L	.	.	.	.	.	.	.
.	.	32ff#\J	.	32ff#\JJJ	.	.	.	.	.	.	.
8G\	.	16gg\	.	16gg\LL	.	.	.	.	.	.	.
!	!	!LO:TX:a:t=P:problem= w takcie nadliczbowo grupa 8gg-8ee	!	!	!	!	!	!	!	!	!
.	.	16ee\JJ	.	16ee\JJ	.	.	.	.	.	.	.
8A\	.	8dd\L	.	8dd\L	.	.	.	.	.	.	.
8AA/J	.	8eeT\J	.	8eeT\J	.	.	.	.	.	.	.
!LO:TX:a:t=P:problem=mixed beam	!LO:DY:a	!	!LO:DY:a	!	!LO:DY:a	!	!	!	!	!	!
8D/L	p	8dd\L	p	8dd\L	p	.	.	.	.	.	.
8d\	.	8dd\	.	8ff#\	.	.	.	.	.	.	.
8A\	.	8dd\	.	8ff#\	.	.	.	.	.	.	.
8F#\J	.	8dd\J	.	8ff#\J	.	.	.	.	.	.	.
=11	=11	=11	=11	=11	=11	=11	=11	=11	=11	=11	=11
!LO:TX:a:t=P:problem=mixed beam	!	!	!	!	!	!	!	!	!	!	!
8D\L	.	16dd\LL	.	16ff#\LL	.	.	.	1r	.	1ryy	1ryy
.	.	(32ee\L	.	32ee\L	.	.	.	.	.	.	.
.	.	32ff#\J)	.	32ff#\JJJ	.	.	.	.	.	.	.
8G\	.	16gg\	.	16gg\LL	.	.	.	.	.	.	.
.	.	16ee\JJ	.	16ee\JJ	.	.	.	.	.	.	.
8A\	.	8dd\L	.	8dd\L	.	.	.	.	.	.	.
8AA/J	.	8eeT\J	.	8eeT\J	.	.	.	.	.	.	.
!	!	!	!LO:DY:a	!	!LO:DY:a	!	!	!	!	!	!
8D\L	.	16dd\LL	f	16dd\LL	f	.	.	.	.	.	.
.	.	16a\JJ	.	16a\	.	.	.	.	.	.	.
8D\J	.	16f#/LL	.	16f#\	.	.	.	.	.	.	.
.	.	16e/JJ	.	16e\JJ	.	.	.	.	.	.	.
4D;\	.	4d;/	.	4d;/	.	.	.	.	.	.	.
=12	=12	=12	=12	=12	=12	=12	=12	=12	=12	=12	=12
*	*	*tremolo	*	*	*	*	*	*	*	*	*
!	!LO:DY:b:t=p	!	!LO:DY:a	!	!	!	!	!	!	!	!
8d\L	p	8ff#\L	p	4dd\	.	.	.	4dd\	Ma-	1ryy	1ryy
8d\	.	8ff#\	.	.	.	.	.	.	.	.	.
.	.	.	.	8qqgg/	.	.	.	.	.	.	.
8d\	.	8ff#\	.	8ff#\L	.	.	.	8ff#\	-ter	.	.
8d\J	.	8ff#\J	.	16ee\L	.	.	.	16ee\LL	a-	.	.
.	.	.	.	16dd\JJ	.	.	.	16dd\JJ	.	.	.
8c#\L	.	8ee\L	.	4aa\	.	.	.	8aa\	-ma-	.	.
8c#\	.	8ee\	.	.	.	.	.	8a/	-bi-	.	.
8c#\	.	8ee\	.	4a/	.	.	.	4a/	-lis	.	.
8c#\J	.	8ee\J	.	.	.	.	.	.	.	.	.
!	!	!LO:LB:g=original	!	!	!	!	!	!	!	!	!
=13	=13	=13	=13	=13	=13	=13	=13	=13	=13	=13	=13
!LO:TX:a:t=P:problem=mixed beam	!	!	!	!	!	!	!	!	!	!	!
8B\L	.	4b\	.	4gg\	.	00r	.	4gg\	o-	1ryy	1ryy
8G\	.	.	.	.	.	.	.	.	.	.	.
8A\	.	16a/LL	.	16ff#\LL	.	.	.	16ff#\LL	-ra	.	.
.	.	16g/	.	16ee\	.	.	.	16ee\JJ	.	.	.
8AA/J	.	16f#/	.	16dd\	.	.	.	16dd\LL	pro	.	.
.	.	16e/JJ	.	16cc#\JJ	.	.	.	16cc#\JJ	.	.	.
!	!	!	!	!LO:LB:g=original	!	!	!	!	!	!	!
8D\L	.	4f#/	.	4dd\	.	.	.	4dd\	no-	.	.
8E\	.	.	.	.	.	.	.	.	.	.	.
8F#\	.	4f#/	.	4dd\	.	.	.	4dd\	-bis	.	.
8D\J	.	.	.	.	.	.	.	.	.	.	.
=14	=14	=14	=14	=14	=14	=14	=14	=14	=14	=14	=14
*tremolo	*	*	*	*	*	*	*	*	*	*	*
8D\L	.	8a/L	.	4ff#\	.	.	.	4ff#\	Ma-	1ryy	1ryy
8D\	.	8a/	.	.	.	.	.	.	.	.	.
8D\	.	8a/	.	16ee\LL	.	.	.	16ee\LL	.	.	.
.	.	.	.	16dd\	.	.	.	16dd\	.	.	.
8D\J	.	8a/J	.	16cc#\	.	.	.	16cc#\	.	.	.
.	.	.	.	16b\JJ	.	.	.	16b\JJ	.	.	.
8D\L	.	8a/L	.	16a#X\LL	.	.	.	16a#X\LL	.	.	.
.	.	.	.	16b\	.	.	.	16b\JJ	.	.	.
8D\	.	8a/	.	16dd\	.	.	.	16dd\LL	-ter	.	.
.	.	.	.	16ff#\JJ	.	.	.	16ff#\JJ	.	.	.
!	!	!	!	!	!	!	!	!LO:LB:g=original	!	!	!
8D\	.	8a/	.	16ee\LL	.	.	.	16ee\LL	ad-	.	.
.	.	.	.	16dd\	.	.	.	16dd\JJ	.	.	.
8D\J	.	8a/J	.	16cc#\	.	.	.	16cc#\LL	-mi-	.	.
.	.	.	.	16b\JJ	.	.	.	16b\JJ	.	.	.
=15	=15	=15	=15	=15	=15	=15	=15	=15	=15	=15	=15
8C#/L	.	8a/L	.	4ee\	.	.	.	4ee\	-ra-	1ryy	1ryy
8C#/	.	8a/	.	.	.	.	.	.	.	.	.
8C#/	.	8a/	.	16dd\LL	.	.	.	16dd\LL	.	.	.
.	.	.	.	16cc#\	.	.	.	16cc#\	.	.	.
8C#/J	.	8a/J	.	16b\	.	.	.	16b\	.	.	.
.	.	.	.	16a\JJ	.	.	.	16a\JJ	.	.	.
8C#/L	.	8a/L	.	16g#X/LL	.	.	.	16g#X\LL	.	.	.
.	.	.	.	16a/	.	.	.	16a\	.	.	.
8C#/	.	8a/	.	16cc#/	.	.	.	16cc#\	.	.	.
.	.	.	.	16ee/JJ	.	.	.	16ee\JJ	.	.	.
8C#/	.	8a/	.	16dd\LL	.	.	.	16dd\LL	.	.	.
.	.	.	.	16cc#\	.	.	.	16cc#\	.	.	.
8C#/J	.	8a/J	.	16b\	.	.	.	16b\	.	.	.
.	.	.	.	16a\JJ	.	.	.	16a\JJ	.	.	.
*Xtremolo	*	*	*	*	*	*	*	*	*	*	*
=16	=16	=16	=16	=16	=16	=16	=16	=16	=16	=16	=16
8BB/L	.	8f#/L	.	4dd\	.	.	.	4dd\	.	1ryy	1ryy
8BB/	.	8f#/	.	.	.	.	.	.	.	.	.
8D/	.	8f#/	.	16dd\LL	.	.	.	16dd\LL	.	.	.
.	.	.	.	16cc#\	.	.	.	16cc#\	.	.	.
8D/J	.	8f#/J	.	16b\	.	.	.	16b\	.	.	.
.	.	.	.	16a\JJ	.	.	.	16a\JJ	.	.	.
*tremolo	*	*Xtremolo	*	*	*	*	*	*	*	*	*
8E\L	.	8g#X/L	.	16g#X/LL	.	.	.	16g#X/	.	.	.
.	.	.	.	16f#/J	.	.	.	16f#/	-bi-	.	.
8E\	.	8g#/	.	8e/J	.	.	.	8e/	-lis	.	.
8E\	.	8b/	.	8ee\L	.	.	.	4r	.	.	.
8E\J	.	8b/J	.	8ee\J	.	.	.	.	.	.	.
=17	=17	=17	=17	=17	=17	=17	=17	=17	=17	=17	=17
8E\L	.	2b\	.	8ee\L	.	0r	.	4dd\	o-	1ryy	1ryy
8E\	.	.	.	8ee\	.	.	.	.	.	.	.
8E\	.	.	.	8ee\	.	.	.	4bb\	.	.	.
8E\J	.	.	.	8ee\J	.	.	.	.	.	.	.
*Xtremolo	*	*	*	*	*	*	*	*	*	*	*
8E\L	.	8b\L	.	8ee\L	.	.	.	16bb\LL	.	.	.
.	.	.	.	.	.	.	.	16aa\	.	.	.
8G#X\	.	(8dd\	.	8ff#\	.	.	.	16gg#X\	.	.	.
.	.	.	.	.	.	.	.	16ff#\JJ	.	.	.
8A\	.	8cc#\	.	8ee\	.	.	.	16ee\LL	-ra	.	.
.	.	.	.	.	.	.	.	16dd\JJ	.	.	.
8D\J	.	8b\J)	.	8dd\J	.	.	.	16cc#\LL	pro	.	.
.	.	.	.	.	.	.	.	16b\JJ	.	.	.
=18	=18	=18	=18	=18	=18	=18	=18	=18	=18	=18	=18
4E\	.	4a/	.	4cc#\	.	.	.	4a\	no-	1ryy	1ryy
4EE/	.	4g#X/	.	4bT\	.	.	.	4bT\	.	.	.
!	!LO:DY:a	!LO:TX:a:t=P:f=f:problem	!LO:DY:a	!LO:TX:a:t=P:f=f:problem	!LO:DY:a	!	!	!	!	!	!
!	!	!	!	!	!LO:DY:t=f&colon;	!	!	!	!	!	!
8AA/L	f	16a\LL	f	16a\LL	f	.	.	4a\	-bis	.	.
.	.	16gg#X\	.	16gg#X\	.	.	.	.	.	.	.
8C#/	.	16aa\	.	16aa\	.	.	.	.	.	.	.
.	.	16ee\JJ	.	16ee\JJ	.	.	.	.	.	.	.
8D/	.	16ff#\LL	.	16ff#\LL	.	.	.	4r	.	.	.
.	.	16dd\	.	16dd\	.	.	.	.	.	.	.
8E/J	.	16cc#\	.	16cc#\	.	.	.	.	.	.	.
.	.	16b\JJ	.	16b\JJ	.	.	.	.	.	.	.
!LO:LB:g=original	!	!	!	!	!	!	!	!	!	!	!
=19	=19	=19	=19	=19	=19	=19	=19	=19	=19	=19	=19
*tremolo	*	*tremolo	*	*	*	*	*	*	*	*	*
!	!LO:DY:a	!LO:TX:a:t=P:p=p:problem	!LO:DY:a	!LO:TX:a:t=P:p=p:problem	!LO:DY:a	!	!	!	!	!	!
!	!	!	!LO:DY:t=p&colon;	!	!LO:DY:t=p&colon;	!	!	!	!	!	!
8A\L	p	8cc#\L	p	4a\	p	4A\	Ma-	00r	.	1ryy	1ryy
8A\	.	8cc#\	.	.	.	.	.	.	.	.	.
.	.	.	.	8qqdd/	.	8qqd/	.	.	.	.	.
8A\	.	8cc#\	.	8cc#\L	.	8c#\	-ter	.	.	.	.
8A\J	.	8cc#\J	.	16b\L	.	16B\LL	a-	.	.	.	.
.	.	.	.	16a\JJ	.	16A\JJ	.	.	.	.	.
8G#X\L	.	8b\L	.	4ee\	.	8e\	-ma-	.	.	.	.
8G#X\	.	8b\	.	.	.	8E/	-bi-	.	.	.	.
8G#X\	.	8b\	.	4e/	.	4E/	-lis	.	.	.	.
8G#X\J	.	8b\J	.	.	.	.	.	.	.	.	.
=20	=20	=20	=20	=20	=20	=20	=20	=20	=20	=20	=20
!LO:TX:a:t=P:problem=mixed beam	!	!	!	!	!	!	!	!	!	!	!
8F#\L	.	4f#/	.	4dd\	.	4d\	o-	.	.	1ryy	1ryy
8D\	.	.	.	.	.	.	.	.	.	.	.
8E\	.	16e/LL	.	16cc#\LL	.	16c#\LL	-ra	.	.	.	.
.	.	16d/	.	16b\	.	16B\JJ	.	.	.	.	.
8EE/J	.	16c#/	.	16a\	.	16A\LL	pro	.	.	.	.
.	.	16B/JJ	.	16g#X\JJ	.	16G#X\JJ	.	.	.	.	.
!	!	!	!	!LO:LB:g=original	!	!	!	!	!	!	!
8AA/L	.	4c#/	.	4a/	.	4A\	no-	.	.	.	.
8BB/	.	.	.	.	.	.	.	.	.	.	.
8C#/	.	4cc#\	.	4aa\	.	4A\	-bis	.	.	.	.
8AA/J	.	.	.	.	.	.	.	.	.	.	.
=21	=21	=21	=21	=21	=21	=21	=21	=21	=21	=21	=21
!LO:TX:a:t=P:problem=mixed beam	!	!	!	!	!	!	!	!	!	!	!
8AA/L	.	8cc#\L	.	4cc#\	.	4c#\	Ma-	.	.	1ryy	1ryy
8A\	.	8cc#\	.	.	.	.	.	.	.	.	.
8A\	.	8cc#\	.	16b\LL	.	16B\LL	.	.	.	.	.
.	.	.	.	16a\	.	16A\	.	.	.	.	.
8A\J	.	8cc#\J	.	16g#X\	.	16G#X\	.	.	.	.	.
.	.	.	.	16f#\JJ	.	16F#\JJ	.	.	.	.	.
!	!	!	!	!	!	!LO:LB:g=original	!	!	!	!	!
8A\L	.	8cc#\L	.	16e#X/LL	.	16E#X/LL	.	.	.	.	.
.	.	.	.	16f#/	.	16F#/JJ	.	.	.	.	.
8A\	.	8cc#\	.	16a/	.	16A\LL	-ter	.	.	.	.
.	.	.	.	16cc#/JJ	.	16c#\JJ	.	.	.	.	.
8A\	.	8cc#\	.	16b\LL	.	16B\LL	ad-	.	.	.	.
.	.	.	.	16a\	.	16A\JJ	.	.	.	.	.
8A\J	.	8cc#\J	.	16g#X\	.	16G#X/LL	-mi-	.	.	.	.
.	.	.	.	16f#\JJ	.	16F#/JJ	.	.	.	.	.
=22	=22	=22	=22	=22	=22	=22	=22	=22	=22	=22	=22
8G#X\L	.	8b\L	.	4b\	.	4B\	-ra-	.	.	1ryy	1ryy
8G#X\	.	8b\	.	.	.	.	.	.	.	.	.
8G#X\	.	8b\	.	16a/LL	.	16A/LL	.	.	.	.	.
!	!	!	!	!LO:SIC:v:s=16g#/	!	!	!	!	!	!	!
.	.	.	.	16g/	.	16G#X/	.	.	.	.	.
8G#X\J	.	8b\J	.	16f#/	.	16F#/	.	.	.	.	.
.	.	.	.	16en/JJ	.	16E/JJ	.	.	.	.	.
8G#\L	.	8b\L	.	16d#X/LL	.	16D#X/LL	.	.	.	.	.
.	.	.	.	16e/	.	16E/	.	.	.	.	.
8G#\	.	8b\	.	16g#X/	.	16G#X/	.	.	.	.	.
.	.	.	.	16b/JJ	.	16B/JJ	.	.	.	.	.
8G#\	.	8b\	.	16a/LL	.	16A/LL	.	.	.	.	.
.	.	.	.	16g#/	.	16G#X/	.	.	.	.	.
8G#\J	.	8b\J	.	16f#/	.	16F#/	.	.	.	.	.
.	.	.	.	16e/JJ	.	16E/JJ	.	.	.	.	.
!	!	!LO:LB:g=original	!	!	!	!	!	!	!	!	!
=23	=23	=23	=23	=23	=23	=23	=23	=23	=23	=23	=23
8D#X\L	.	8f#/	.	8a/	.	8A\	.	0r	.	1ryy	1ryy
8D#\	.	4f#/	.	4a/	.	4A\	.	.	.	.	.
8D#\	.	.	.	.	.	.	.	.	.	.	.
8E\J	.	8e/	.	8g#X/	.	8G#X/	-bi-	.	.	.	.
!LO:TX:a:t=P:problem=mixed beam	!	!LO:TX:a:t=P:problem=mixed beam	!	!LO:TX:a:t=P:problem=mixed beam	!	!	!	!	!	!	!
8B\L	.	8d#X/L	.	8f#/L	.	4F#/	-lis	.	.	.	.
!	!	!LO:SIC:v:s=8dd#\J	!	!	!	!	!	!	!	!	!
8BB/J	.	8dd\J	.	8ff#\J	.	.	.	.	.	.	.
!	!	!LO:SIC:v:s=4dd#\	!	!	!	!	!	!	!	!	!
4BB/	.	4dd\	.	4ff#\	.	4r	.	.	.	.	.
=24	=24	=24	=24	=24	=24	=24	=24	=24	=24	=24	=24
8BB/L	.	8f#/L	.	8a\L	.	4A\	o-	.	.	1ryy	1ryy
8BB/	.	8a/	.	8ff#\	.	.	.	.	.	.	.
8BB/	.	8a/	.	8ff#\	.	4f#\	.	.	.	.	.
8BB/J	.	8a/J	.	8ff#\J	.	.	.	.	.	.	.
*	*	*	*	*tremolo	*	*	*	*	*	*	*
8BB/L	.	8a/L	.	8ff#\L	.	16f#\LL	.	.	.	.	.
.	.	.	.	.	.	16e\	.	.	.	.	.
8BB/	.	8a/	.	8ff#\	.	16d#X\	.	.	.	.	.
.	.	.	.	.	.	16c#\JJ	.	.	.	.	.
8BB/	.	8a/	.	8ff#\	.	16B\LL	-ra	.	.	.	.
.	.	.	.	.	.	16A\JJ	.	.	.	.	.
8BB/J	.	8a/J	.	8ff#\J	.	16G#X/LL	pro	.	.	.	.
.	.	.	.	.	.	16F#/JJ	.	.	.	.	.
*	*	*Xtremolo	*	*Xtremolo	*	*	*	*	*	*	*
=25	=25	=25	=25	=25	=25	=25	=25	=25	=25	=25	=25
!LO:TX:a:t=P:problem=mixed beam	!	!	!	!	!	!LO:TX:a:t=P:problem=mixed beam	!	!	!	!	!
8E\L	.	8g#X/L	.	8ee\L	.	8E/L	no-	1r	.	1ryy	1ryy
8G#X\	.	8g#/J	.	8ee\J	.	8e\J	.	.	.	.	.
8B\	.	4f#/	.	4dd#X\	.	4f#\	.	.	.	.	.
8BB/J	.	.	.	.	.	.	.	.	.	.	.
!LO:TX:a:t=P:problem=mixed beam	!LO:DY:a	!LO:TX:a:t=P:f=f:problem	!LO:DY:a	!LO:TX:a:t=P:f=f:problem	!LO:DY:a	!	!	!	!	!	!
!	!	!	!	!	!LO:DY:t=f&colon;	!	!	!	!	!	!
8E\L	f	16ee\LL	f	16ee\LL	f	4e\	-bis	.	.	.	.
.	.	16gg#X\	.	16gg#X\	.	.	.	.	.	.	.
8G#X\	.	16ff#\	.	16ff#\	.	.	.	.	.	.	.
.	.	16ee\JJ	.	16ee\JJ	.	.	.	.	.	.	.
8B\	.	16dd#X\LL	.	16dd#X\LL	.	4r	.	.	.	.	.
.	.	16cc#\	.	16cc#\	.	.	.	.	.	.	.
8BB/J	.	16b\	.	16b\	.	.	.	.	.	.	.
.	.	16a\JJ	.	16a\JJ	.	.	.	.	.	.	.
!	!	!	!	!	!	!	!	!LO:LB:g=original	!	!	!
=26	=26	=26	=26	=26	=26	=26	=26	=26	=26	=26	=26
*	*	*tremolo	*	*	*	*	*	*	*	*	*
!LO:TX:a:t=P:p=p:problem	!LO:DY:a	!LO:TX:a:t=P:p=p:problem	!LO:DY:a	!LO:TX:a:t=P:p=p:problem	!LO:DY:a	!	!	!	!	!	!
!	!LO:DY:t=p&colon;	!	!	!	!LO:DY:t=p&colon;	!	!	!	!	!	!
8E\L	p	8g#X/L	p	8g/L	p	1r	.	8ee\	Ma-	1ryy	1ryy
8E\	.	8g#X/	.	8b/'>	.	.	.	8ee\	-ter	.	.
.	.	.	.	.	.	.	.	8qqa/	.	.	.
8E\	.	8g#X/	.	8b/'>	.	.	.	8g#X/	Cre-	.	.
8E\J	.	8g#X/J	.	8b/J'>	.	.	.	16f#/LL	-a-	.	.
.	.	.	.	.	.	.	.	16e/JJ	.	.	.
*	*	*	*	*tremolo	*	*	*	*	*	*	*
8E\L	.	8g#/L	.	8b\L	.	.	.	16dd\LL	-to-	.	.
.	.	.	.	.	.	.	.	16cc#\JJ	.	.	.
8E\	.	8g#/	.	8b\	.	.	.	4dd\	-ris	.	.
8E\	.	8g#/	.	8b\	.	.	.	.	.	.	.
8E\J	.	8g#/J	.	8b\J	.	.	.	8dd\	o-	.	.
*	*	*	*	*	*	*	*	*	*	*	*
=27	=27	=27	=27	=27	=27	=27	=27	=27	=27	=27	=27
!	!	!LO:SIC:v:s=8g#/L	!	!	!	!	!	!	!	!	!
8E\L	.	8g/L	.	8b\L	.	2r	.	16dd\LL	-ra	1ryy	1ryy
.	.	.	.	.	.	.	.	16cc#\JJ	.	.	.
!	!	!LO:SIC:v:s=8g#/	!	!	!	!	!	!	!	!	!
8E\	.	8g/	.	8b\	.	.	.	16b\LL	pro	.	.
.	.	.	.	.	.	.	.	16a\JJ	.	.	.
!	!	!LO:SIC:v:s=8g#/	!	!	!	!	!	!	!	!	!
8E\	.	8g/	.	8b\	.	.	.	16g#X/LL	no-	.	.
.	.	.	.	.	.	.	.	16f#/	.	.	.
!	!	!LO:SIC:v:s=8g#/J	!	!	!	!	!	!	!	!	!
8E\J	.	8g/J	.	8b\J	.	.	.	16e/	.	.	.
*	*	*	*	*tremolo	*	*	*	*	*	*	*
.	.	.	.	.	.	.	.	16d/JJ	.	.	.
8A\L	.	8a\L	.	8cc#\L	.	8a\	Ma-	4c#/	-bis	.	.
8A\	.	8cc#\	.	8ee\	.	8a\	-ter	.	.	.	.
!	!	!	!	!	!	!LO:LB:g=original	!	!	!	!	!
.	.	.	.	.	.	8qqd/	.	.	.	.	.
8A\	.	8cc#\	.	8ee\	.	8c#\	sal-	4r	.	.	.
8A\J	.	8cc#\J	.	8ee\J	.	(16B\LL	-va-	.	.	.	.
.	.	.	.	.	.	16A\JJ)	.	.	.	.	.
!	!	!	!	!LO:LB:g=original	!	!	!	!	!	!	!
=28	=28	=28	=28	=28	=28	=28	=28	=28	=28	=28	=28
8A\L	.	8cc#\L	.	8ee\L	.	16g\LL	-to-	1r	.	1ryy	1ryy
.	.	.	.	.	.	16f#\JJ	.	.	.	.	.
8A\	.	8cc#\	.	8ee\	.	4g\	-ris	.	.	.	.
8A\	.	8cc#\	.	8ee\	.	.	.	.	.	.	.
8A\J	.	8cc#\J	.	8ee\J	.	8g\	o-	.	.	.	.
8A\L	.	8cc#\L	.	8ee\L	.	16g\LL	-ra	.	.	.	.
.	.	.	.	.	.	16f#\JJ	.	.	.	.	.
8A\	.	8cc#\	.	8ee\	.	16e\LL	pro	.	.	.	.
.	.	.	.	.	.	16d\JJ	.	.	.	.	.
8A\	.	8cc#\	.	8ee\	.	16c#\LL	no-	.	.	.	.
.	.	.	.	.	.	16B\	.	.	.	.	.
8A\J	.	8cc#\J	.	8ee\J	.	16A\	.	.	.	.	.
.	.	.	.	.	.	16G\JJ	.	.	.	.	.
*	*	*	*	*Xtremolo	*	*	*	*	*	*	*
*	*	*Xtremolo	*	*Xtremolo	*	*	*	*	*	*	*
!LO:LB:g=original	!	!	!	!	!	!	!	!	!	!	!
=29	=29	=29	=29	=29	=29	=29	=29	=29	=29	=29	=29
8D\L	.	4dd\	.	4ff#\	.	4F#/	-bis	4r	.	1ryy	1ryy
8D\	.	.	.	.	.	.	.	.	.	.	.
8D\	.	4b\	.	4gg\	.	4g\	o-	4b\	o-	.	.
8D\J	.	.	.	.	.	.	.	.	.	.	.
8D\L	.	4a/	.	4ff#\	.	4f#\	.	4a\	.	.	.
8D\	.	.	.	.	.	.	.	.	.	.	.
8D\	.	16g/LL	.	16ee\LL	.	16e\LL	.	16gn/LL	.	.	.
.	.	16f#/	.	16dd\	.	16d\	.	16f#/	.	.	.
8D\J	.	16e/	.	16cc#\	.	16c#\	.	16e/	.	.	.
.	.	16g/JJ	.	16ee\JJ	.	16e\JJ	.	16g/JJ	.	.	.
=30	=30	=30	=30	=30	=30	=30	=30	=30	=30	=30	=30
8D\L	.	4f#/	.	16dd\LL	.	4d\	-ra	4f#/	-ra	1ryy	1ryy
.	.	.	.	16ff#\	.	.	.	.	.	.	.
8D\	.	.	.	16aa\	.	.	.	.	.	.	.
.	.	.	.	16ddd\JJ	.	.	.	.	.	.	.
8D\	.	4b/	.	4gg\	.	4B\	pro	4gg\	pro	.	.
8D\J	.	.	.	.	.	.	.	.	.	.	.
8D\L	.	4a/	.	4ff#\	.	4A\	no-	4ff#\	no-	.	.
8D\	.	.	.	.	.	.	.	.	.	.	.
8D\	.	16g/LL	.	16ee\LL	.	16G/LL	.	16ee\LL	.	.	.
.	.	16f#/	.	16dd\	.	16F#/	.	16dd\	.	.	.
8D\J	.	16e/	.	16cc#\	.	16E/	.	16cc#\	.	.	.
.	.	16g/JJ	.	16ee\JJ	.	16G/JJ	.	16ee\JJ	.	.	.
=31	=31	=31	=31	=31	=31	=31	=31	=31	=31	=31	=31
!	!	!	!	!LO:TX:a:t=P:problem=mixed beam	!	!	!	!	!	!	!
8D\L	.	16f#/LL	.	16dd\LL	.	4F#/	-bis	8dd\	-bis	1ryy	1ryy
.	.	16d/	.	16d/	.	.	.	.	.	.	.
8D\	.	16a/	.	16ccn\	.	.	.	4ccn\	ma-	.	.
.	.	16a/JJ	.	16cc\JJ	.	.	.	.	.	.	.
8D\	.	4a/	.	16cc\LL	.	4r	.	.	.	.	.
.	.	.	.	16cc\	.	.	.	.	.	.	.
8D\J	.	.	.	16cc\	.	.	.	8cc\	-ter	.	.
.	.	.	.	16cc\JJ	.	.	.	.	.	.	.
!	!	!	!	!	!	!	!	!LO:LB:g=original	!	!	!
8D\L	.	16a/KL	.	16cc\KL	.	2r	.	8cc\	cre-	.	.
.	.	8a/	.	8aa\	.	.	.	.	.	.	.
8D\	.	.	.	.	.	.	.	16aa\LL	-a-	.	.
.	.	8a/	.	8ff#\	.	.	.	16gg\JJ	.	.	.
8D\	.	.	.	.	.	.	.	16ff#\LL	-to-	.	.
.	.	16b/L	.	8dd\	.	.	.	16ee\	.	.	.
8D\J	.	16a/JJ	.	.	.	.	.	16dd\	.	.	.
!	!	!LO:TX:a:t=P:problem=takt niepełny	!	!	!	!	!	!	!	!	!
.	.	16ryy	.	16cc\Jk	.	.	.	16ccn\JJ	.	.	.
!	!	!LO:LB:g=original	!	!	!	!	!	!	!	!	!
=32	=32	=32	=32	=32	=32	=32	=32	=32	=32	=32	=32
!	!	!	!	!LO:TX:a:t=P:problem=mixed beam	!	!	!	!	!	!	!
8G\L	.	16g/LL	.	16b\LL	.	1r	.	8b\	-ris	1ryy	1ryy
.	.	16e/	.	16f#/	.	.	.	.	.	.	.
8E\	.	16b/	.	16dd\	.	.	.	4dd\	ma-	.	.
.	.	16b/JJ	.	16dd\JJ	.	.	.	.	.	.	.
*	*	*tremolo	*	*	*	*	*	*	*	*	*
8E\	.	16b\LL	.	16dd\LL	.	.	.	.	.	.	.
.	.	16b\	.	16dd\	.	.	.	.	.	.	.
8E\J	.	16b\	.	16dd\	.	.	.	8dd\	-ter	.	.
.	.	16b\JJ	.	16dd\JJ	.	.	.	.	.	.	.
*	*	*Xtremolo	*	*	*	*	*	*	*	*	*
8E\L	.	8b\L	.	16dd\KL	.	.	.	16dd\	sal-	.	.
.	.	.	.	8bb\	.	.	.	16ff#\	-va-	.	.
8E\	.	8b\J	.	.	.	.	.	4ee\	-to-	.	.
.	.	.	.	8gg#X\	.	.	.	.	.	.	.
8E\	.	8b\L	.	.	.	.	.	.	.	.	.
.	.	.	.	8ee\	.	.	.	.	.	.	.
8E\J	.	16cc#\L	.	.	.	.	.	8dd\	.	.	.
.	.	16b\JJ	.	16dd\Jk	.	.	.	.	.	.	.
=33	=33	=33	=33	=33	=33	=33	=33	=33	=33	=33	=33
8A\L	.	8a\L	.	8cc#\L	.	8r	.	8cc#\	-ris	1ryy	1ryy
8d\	.	8dd\	.	8ff#\	.	8d\	o-	8ff#\	o-	.	.
8A\	.	8dd\	.	8ff#\	.	8d\	-ra	8ff#\	-ra	.	.
8F#\J	.	8dd\J	.	8ff#\J	.	8d\	pro	8ff#\	pro	.	.
!LO:TX:a:t=P:problem=mixed beam	!	!	!	!	!	!	!	!	!	!	!
8D\L	.	8a/L	.	16ff#\LL	.	8d\L	no-	8ff#\L	no-	.	.
.	.	.	.	(32ee\L	.	.	.	.	.	.	.
.	.	.	.	32ff#\JJJ)	.	.	.	.	.	.	.
8G\	.	8b/	.	16gg\LL	.	8e\	.	8gg\	.	.	.
.	.	.	.	16ee\JJ	.	.	.	.	.	.	.
8A\	.	8f#/	.	8dd\L	.	8d\	.	8ff#\	.	.	.
8AA/J	.	8g/J	.	8ee\J	.	8c#\J	.	8ee\J	.	.	.
!	!	!	!	!	!	!LO:LB:g=original	!	!	!	!	!
=34	=34	=34	=34	=34	=34	=34	=34	=34	=34	=34	=34
!	!	!	!	!LO:TX:a:t=P:problem=mixed beam	!	!	!	!	!	!	!
8D\L	.	16f#/LL	.	16dd\LL	.	8d\	-bis	4ff#\	-bis	1ryy	1ryy
.	.	16d/	.	16d/	.	.	.	.	.	.	.
8D\	.	16a/	.	16ccn\	.	4cn\	ma-	.	.	.	.
.	.	16a/JJ	.	16cc\JJ	.	.	.	.	.	.	.
*	*	*tremolo	*	*	*	*	*	*	*	*	*
8D\	.	16a/LL	.	16cc\LL	.	.	.	4r	.	.	.
.	.	16a/	.	16cc\	.	.	.	.	.	.	.
8D\J	.	16a/	.	16cc\	.	8c\	-ter	.	.	.	.
.	.	16a/JJ	.	16cc\JJ	.	.	.	.	.	.	.
*	*	*Xtremolo	*	*	*	*	*	*	*	*	*
8D\L	.	8a/L	.	16cc\KL	.	8c\	cre-	2r	.	.	.
.	.	.	.	8aa\	.	.	.	.	.	.	.
8D\	.	8a/J	.	.	.	16a\LL	-a-	.	.	.	.
.	.	.	.	8ff#\	.	16g\JJ	.	.	.	.	.
8D\	.	8a/L	.	.	.	16f#\LL	-to-	.	.	.	.
.	.	.	.	8dd\	.	16e\	.	.	.	.	.
8D\J	.	16b/L	.	.	.	16d\	.	.	.	.	.
.	.	16a/JJ	.	16cc\Jk	.	16cn\JJ	.	.	.	.	.
!	!	!	!	!LO:LB:g=original	!	!	!	!	!	!	!
=35	=35	=35	=35	=35	=35	=35	=35	=35	=35	=35	=35
!	!	!	!	!LO:TX:a:t=P:problem=mixed beam	!	!	!	!	!	!	!
8G\L	.	16g/LL	.	16b\LL	.	8B\	-ris	1r	.	1ryy	1ryy
.	.	16e/	.	16f#/	.	.	.	.	.	.	.
8E\	.	16b/	.	16dd\	.	4d\	Ma-	.	.	.	.
.	.	16b/JJ	.	16dd\JJ	.	.	.	.	.	.	.
*	*	*tremolo	*	*	*	*	*	*	*	*	*
8E\	.	16b\LL	.	16dd\LL	.	.	.	.	.	.	.
.	.	16b\	.	16dd\	.	.	.	.	.	.	.
8E\J	.	16b\	.	16dd\	.	8d\	-ter	.	.	.	.
.	.	16b\JJ	.	16dd\JJ	.	.	.	.	.	.	.
*	*	*Xtremolo	*	*	*	*	*	*	*	*	*
*	*	*Xtremolo	*	*	*	*	*	*	*	*	*
8E\L	.	8b\L	.	16dd\KL	.	16d\	Sal-	.	.	.	.
.	.	.	.	8bb\	.	16f#\	-va-	.	.	.	.
8E\	.	8b\J	.	.	.	4e\	-to-	.	.	.	.
.	.	.	.	8gg#X\	.	.	.	.	.	.	.
8E\	.	8b\L	.	.	.	.	.	.	.	.	.
.	.	.	.	8ee\	.	.	.	.	.	.	.
8E\J	.	16cc#\L	.	.	.	8d\	.	.	.	.	.
.	.	16b\JJ	.	16dd\Jk	.	.	.	.	.	.	.
=36	=36	=36	=36	=36	=36	=36	=36	=36	=36	=36	=36
8A\L	.	8a\L	.	8cc#\L	.	8c#X\	-ris	8r	.	1ryy	1ryy
8d\	.	8dd\	.	8ff#\	.	8f#\	o-	8dd\	o-	.	.
8A\	.	8dd\	.	8ff#\	.	8f#\	-ra	8dd\	-ra	.	.
8F#\J	.	8dd\J	.	8ff#\J	.	8f#\	pro	8dd\	pro	.	.
!LO:TX:a:t=P:problem=mixed beam	!	!	!	!	!	!	!	!	!	!	!
8D\L	.	8a/L	.	16ff#\LL	.	8f#\L	no-	8dd\L	no-	.	.
.	.	.	.	32ee\L	.	.	.	.	.	.	.
.	.	.	.	32ff#\J	.	.	.	.	.	.	.
8G\	.	8b/J	.	16gg\	.	8g\	.	8ee\J	.	.	.
.	.	.	.	16ee\JJ	.	.	.	.	.	.	.
8A\	.	8f#/L	.	8dd\L	.	8f#\	.	8dd\L	.	.	.
8AA/J	.	8g/J	.	8ee\J	.	8e\J	.	8cc#\J	.	.	.
!	!	!	!	!	!	!	!	!LO:PB:g=original	!	!	!
=37	=37	=37	=37	=37	=37	=37	=37	=37	=37	=37	=37
8D\L	.	4f#/	.	4dd\	.	4f#\	-bis	4dd\	-bis	1ryy	1ryy
8D\	.	.	.	.	.	.	.	.	.	.	.
8D\	.	4gg\	.	4bb\	.	4B\	o-	4gg\	o-	.	.
8D\J	.	.	.	.	.	.	.	.	.	.	.
8D\L	.	4ff#\	.	4aa\	.	4A\	.	4ff#\	.	.	.
8D\	.	.	.	.	.	.	.	.	.	.	.
8D\	.	16ee\LL	.	16gg\LL	.	16G/LL	.	16ee\LL	.	.	.
.	.	16dd\	.	16ff#\	.	16F#/	.	16dd\	.	.	.
8D\J	.	16cc#\	.	16ee\	.	16E/	.	16cc#\	.	.	.
.	.	16ee\JJ	.	16gg\JJ	.	16G/JJ	.	16ee\JJ	.	.	.
=38	=38	=38	=38	=38	=38	=38	=38	=38	=38	=38	=38
8D\L	.	4dd\	.	4ff#\	.	4F#/	-ra	4dd\	-ra	1ryy	1ryy
8D\	.	.	.	.	.	.	.	.	.	.	.
8D\	.	4b\	.	4gg\	.	4g\	pro	4b\	pro	.	.
8D\J	.	.	.	.	.	.	.	.	.	.	.
8D\L	.	4a\	.	4ff#\	.	4f#\	no-	4a\	no-	.	.
8D\	.	.	.	.	.	.	.	.	.	.	.
!	!	!	!	!	!	!	!	!	!	!	!
8D\	.	16g/LL	.	16ee\LL	.	16e\LL	.	16g/LL	.	.	.
.	.	16f#/	.	16dd\	.	16d\	.	16f#/	.	.	.
8D\J	.	16e/	.	16cc#\	.	16c#\	.	16e/	.	.	.
.	.	16g/JJ	.	16ee\JJ	.	16e\JJ	.	16g/JJ	.	.	.
*Xtremolo	*	*	*	*	*	*	*	*	*	*	*
!	!	!	!	!	!	!LO:LB:g=original	!	!	!	!	!
*Xtremolo	*	*	*	*	*	*	*	*	*	*	*
=39	=39	=39	=39	=39	=39	=39	=39	=39	=39	=39	=39
4D\	.	8f#/	.	8dd\	.	8d\	-bis	8f#/	-bis	1ryy	1ryy
.	.	4g/	.	4ee\	.	4e\	o-	4g/	o-	.	.
4D\	.	.	.	.	.	.	.	.	.	.	.
.	.	8a/	.	8ff#\	.	8f#\	.	8a/	.	.	.
4AA/	.	8e/	.	8cc#\	.	8c#\	.	8e/	.	.	.
.	.	4f#/	.	4dd\	.	4d\	.	4f#/	.	.	.
4AA/	.	.	.	.	.	.	.	.	.	.	.
.	.	8g/	.	8ee\	.	8e\	.	8g/	.	.	.
!	!	!LO:LB:g=original	!	!	!	!	!	!	!	!	!
=40	=40	=40	=40	=40	=40	=40	=40	=40	=40	=40	=40
4D\	.	8dd\	.	8ff#\	.	8F#/	.	8dd\	.	1ryy	1ryy
.	.	4ee\	.	4gg\	.	4G/	.	4ee\	.	.	.
4D\	.	.	.	.	.	.	.	.	.	.	.
.	.	8ff#\	.	8aa\	.	8A/	.	8ff#\	.	.	.
4AA/	.	8cc#\	.	8ee\	.	8E/	.	8cc#\	.	.	.
.	.	4dd\	.	4ff#\	.	4F#/	.	4dd\	.	.	.
4AA/	.	.	.	.	.	.	.	.	.	.	.
.	.	8ee\	.	8gg\	.	8G/	.	8ee\	.	.	.
!	!	!	!	!	!	!	!	!LO:PB:g=original	!	!	!
!	!	!	!	!	!	!	!	!LO:TX:a:t=P:problem=skreślony takt	!	!	!
=41	=41	=41	=41	=41	=41	=41	=41	=41	=41	=41	=41
!LO:TX:a:t=P:problem=mixed beam	!	!	!	!	!	!	!	!	!	!	!
8D\L	.	8dd\L	.	8ff#\L	.	8F#/	-ra	8dd\	-ra	1ryy	1ryy
8G\	.	8ee\J	.	8gg\J	.	8g\	pro	8ee\	pro	.	.
.	.	8qqdd/	.	8qqff#/	.	8qqf#/	.	8qqdd/	.	.	.
8A\	.	4cc#\	.	4ee\	.	4e\	no-	4cc#\	no-	.	.
8AA/J	.	.	.	.	.	.	.	.	.	.	.
!LO:TX:a:t=P:problem=mixed beam	!	!	!	!	!	!	!	!	!	!	!
8D\L	.	8dd\L	.	8ff#\L	.	8f#\	-bis	8dd\	-bis	.	.
8G\	.	8ee\J	.	8gg\J	.	8e\	pro	8gg\	pro	.	.
!	!	!LO:TX:a:t=P:problem=pojedyncza kreska	!	!	!	!	!	!	!	!	!
!	!	!LO:TX:a:t=Da Capo	!	!LO:TX:a:t=Da Capo	!	!	!	!	!	!	!
.	.	8qqdd/	.	8qqff#/	.	8qqd/	.	8qqff#/	.	.	.
8A\	.	4cc#\	.	4ee\	.	4c#\	no-	4ee\	no-	.	.
!LO:TX:a:t=Da Capo	!	!	!	!	!	!	!	!	!	!	!
8AA/J	.	.	.	.	.	.	.	.	.	.	.
=42	=42	=42	=42	=42	=42	=42	=42	=42	=42	=42	=42
1ryy	.	1ryy	.	1ryy	.	4d\	-bis	4ff#\	-bis	1ryy	1ryy
.	.	.	.	.	.	4r	.	4r	.	.	.
.	.	.	.	.	.	2r	.	2r	.	.	.
=43	=43	=43	=43	=43	=43	=43	=43	=43	=43	=43	=43
1ryy	.	1ryy	.	1ryy	.	00r	.	00r	.	1ryy	1ryy
=44	=44	=44	=44	=44	=44	=44	=44	=44	=44	=44	=44
1ryy	.	1ryy	.	1ryy	.	.	.	.	.	1ryy	1ryy
=45	=45	=45	=45	=45	=45	=45	=45	=45	=45	=45	=45
1ryy	.	1ryy	.	1ryy	.	.	.	.	.	1ryy	1ryy
=46	=46	=46	=46	=46	=46	=46	=46	=46	=46	=46	=46
1ryy	.	1ryy	.	1ryy	.	.	.	.	.	1ryy	1ryy
=47	=47	=47	=47	=47	=47	=47	=47	=47	=47	=47	=47
1ryy	.	1ryy	.	1ryy	.	00r	.	00r	.	1ryy	1ryy
=48	=48	=48	=48	=48	=48	=48	=48	=48	=48	=48	=48
1ryy	.	1ryy	.	1ryy	.	.	.	.	.	1ryy	1ryy
=49	=49	=49	=49	=49	=49	=49	=49	=49	=49	=49	=49
1ryy	.	1ryy	.	1ryy	.	.	.	.	.	1ryy	1ryy
=50	=50	=50	=50	=50	=50	=50	=50	=50	=50	=50	=50
1ryy	.	1ryy	.	1ryy	.	.	.	.	.	1ryy	1ryy
=51	=51	=51	=51	=51	=51	=51	=51	=51	=51	=51	=51
1ryy	.	1ryy	.	1ryy	.	0r	.	0r	.	1ryy	1ryy
=52	=52	=52	=52	=52	=52	=52	=52	=52	=52	=52	=52
1ryy	.	1ryy	.	1ryy	.	.	.	.	.	1ryy	1ryy
==	==	==	==	==	==	==	==	==	==	==	==
*-	*-	*-	*-	*-	*-	*-	*-	*-	*-	*-	*-
!!!system-decoration: [(g1)][(g2)][(g3)][(g4)]
!!!RDF**kern: >= above
!!!RDF**kern: <= below
!!!ENC: Anna Matuszewska
!!!END: 2020-10-16
!!!ENC: Kamil Watkowski
!!!END: 2020-05-21
